!!!SOCIAL_FUNCTION:	dance songs
!!!PDT:	1932
!!!OTL: No_120_Song_of_Tunak_Dance_(a).krn
!!!REG: Southwest
!!!LANG: Non-Tone
!!!LING_GROUP: Yuman-Cochimi
**kern
*staff1
=1-
*clefF4
*k[f#c#g#d#a#]
*M2/4
4r
12r
12G#\L
12A#\J
=2
12B\L
12A#\
12B\J
12G#\L
12G#\
12B\J
=3
8.A#\L
16B\Jk
8A#\
8r
=4
12D#\L
12D#\
12B\J
8.A#\L
16B\Jk
=5
12G#\L
12G#\
12B\J
8.A#\L
16B\Jk
=6
12B\L
12A#\
12B\J
8.A#\L
16G#\Jk
=7
24G#\
24r
12D#\L
12D#\J
8.G#\L
16B\Jk
=8
8.A#\L
16G#\Jk
8G#\
8r
==
*-
